dist/assets/img/fb.svg

<svg width="14" height="27" viewBox="0 0 14 27" fill="none" xmlns="http://www.w3.org/2000/svg">
<path d="M9.09534 27V14.7012H13.2395L13.8603 9.88725H9.09534V6.82127C9.09534 5.43072 9.48119 4.48322 11.4742 4.48322H14V0.189257C13.5606 0.130782 12.0528 0 10.2985 0C6.6355 0 4.1286 2.23615 4.1286 6.34449V9.88725H0V14.7012H4.1286V27H9.09534Z" fill="#4267B2"/>
</svg>

<svg width="14" height="27" fill="none" xmlns="http://www.w3.org/2000/svg"><path d="M9.095 27V14.701h4.144l.621-4.814H9.095V6.821c0-1.39.386-2.338 2.38-2.338H14V.19C13.56.131 12.053 0 10.299 0c-3.663 0-6.17 2.236-6.17 6.344v3.543H0v4.814h4.129V27h4.966z" fill="#4267B2"/></svg>
